svg/clipboard_edit.svg

<svg xmlns="http://www.w3.org/2000/svg" viewBox="0 0 24 24"><path d="M21.04 12.13c.14 0 .27.06.38.17l1.28 1.28c.22.21.22.56 0 .77l-1 1-2.05-2.05 1-1c.11-.11.25-.17.39-.17m-1.97 1.75 2.05 2.05L15.06 22H13v-2.06zM19 3c1.1 0 2 .9 2 2v4L11 19v2H5c-1.1 0-2-.9-2-2V5c0-1.1.9-2 2-2h4.18C9.6 1.84 10.7 1 12 1s2.4.84 2.82 2zm-7 0c-.55 0-1 .45-1 1s.45 1 1 1 1-.45 1-1-.45-1-1-1"/></svg>

<?xml version="1.0" encoding="UTF-8"?><!DOCTYPE svg PUBLIC "-//W3C//DTD SVG 1.1//EN" "http://www.w3.org/Graphics/SVG/1.1/DTD/svg11.dtd"><svg xmlns="http://www.w3.org/2000/svg" xmlns:xlink="http://www.w3.org/1999/xlink" version="1.1" id="mdi-clipboard-edit" width="24" height="24" viewBox="0 0 24 24"><path d="M21.04 12.13C21.18 12.13 21.31 12.19 21.42 12.3L22.7 13.58C22.92 13.79 22.92 14.14 22.7 14.35L21.7 15.35L19.65 13.3L20.65 12.3C20.76 12.19 20.9 12.13 21.04 12.13M19.07 13.88L21.12 15.93L15.06 22H13V19.94L19.07 13.88M19 3C20.1 3 21 3.9 21 5V9L11 19V21H5C3.9 21 3 20.1 3 19V5C3 3.9 3.9 3 5 3H9.18C9.6 1.84 10.7 1 12 1C13.3 1 14.4 1.84 14.82 3H19M12 3C11.45 3 11 3.45 11 4C11 4.55 11.45 5 12 5C12.55 5 13 4.55 13 4C13 3.45 12.55 3 12 3Z" /></svg>
